src/assets/clock.svg

<svg width="21" height="18" viewBox="0 0 21 18" fill="none" xmlns="http://www.w3.org/2000/svg">
<path d="M10.1511 1.5C14.7314 1.5 18.4578 4.8645 18.4578 9C18.4578 13.1355 14.7314 16.5 10.1511 16.5C5.57082 16.5 1.84444 13.1355 1.84444 9C1.84444 4.8645 5.57082 1.5 10.1511 1.5ZM10.1511 0C4.64629 0 0.183105 4.02975 0.183105 9C0.183105 13.9703 4.64629 18 10.1511 18C15.656 18 20.1192 13.9703 20.1192 9C20.1192 4.02975 15.656 0 10.1511 0ZM10.9818 9V4.5H9.32046V10.5H15.1351V9H10.9818Z" fill="#636B77"/>
</svg>

<svg xmlns="http://www.w3.org/2000/svg" width="21" height="18" fill="none" viewBox="0 0 21 18">
  <path fill="#636B77" d="M10.151 1.5c4.58 0 8.307 3.364 8.307 7.5s-3.727 7.5-8.307 7.5S1.844 13.136 1.844 9s3.727-7.5 8.307-7.5Zm0-1.5C4.646 0 .183 4.03.183 9s4.463 9 9.968 9 9.968-4.03 9.968-9-4.463-9-9.968-9Zm.83 9V4.5h-1.66v6h5.814V9h-4.153Z"/>
</svg>
